dist/img/steps/plane-left.svg

<svg id="eYFIWyir8qC1" xmlns="http://www.w3.org/2000/svg" xmlns:xlink="http://www.w3.org/1999/xlink" viewBox="0 0 329 97" shape-rendering="geometricPrecision" text-rendering="geometricPrecision">
<style><![CDATA[
#eYFIWyir8qC2_to {animation: eYFIWyir8qC2_to__to 8000ms linear infinite normal forwards}@keyframes eYFIWyir8qC2_to__to { 0% {offset-distance: 0%} 6.25% {offset-distance: 12.060198%} 12.5% {offset-distance: 19.539475%} 25% {offset-distance: 45.932104%} 37.5% {offset-distance: 58.701632%} 50% {offset-distance: 100%} 100% {offset-distance: 100%}} #eYFIWyir8qC2_tr {animation: eYFIWyir8qC2_tr__tr 8000ms linear infinite normal forwards}@keyframes eYFIWyir8qC2_tr__tr { 0% {transform: rotate(-7.773052deg)} 6.25% {transform: rotate(-1.062661deg)} 12.5% {transform: rotate(9.867036deg)} 25% {transform: rotate(14.423233deg)} 32.5% {transform: rotate(9.663329deg)} 100% {transform: rotate(9.663329deg)}}
]]></style>
<g id="eYFIWyir8qC2_to" style="offset-path:path('M1,16.273001L42.973655,1.42562C54.320368,8.793715,55.204349,3.947709,69.192486,1.42562C94.878207,12.68123,139.423586,32.048328,158.59466,40.159816Q180.639503,54.791217,199.810577,62.902706C242.549984,70.735249,314.990769,96.89776,349.218287,82.093526');offset-rotate:0deg"><g id="eYFIWyir8qC2_tr" transform="rotate(-7.773052)"><g transform="translate(-163.70082,-35.866935)"><path d="M158.852,57.904l40.147-16.655-33.73-1.2232l1.623,5.7159-8.206,6.7301.166,5.4322Z" fill="#685ed6"/><path d="M199,41.2484l-39.548,3.2281-31.25,16.1462L199,41.2484Z" fill="#18e1f7"/><path d="M165.27,40.0255L199,41.2487l-33.185-13.172-.545,11.9488Z" fill="#18e1f7"/></g></g></g><path d="M137.5,35.5C115,29,106.9,11.1,68.5,3.49998s-60.83333,5.16669-67.5,11.00002" fill="none" stroke="#18e1f7" stroke-linecap="round" stroke-linejoin="round" stroke-dasharray="5,7"/><path d="M202,63c9,11,33.5,27.8,63.5,31s54.167,1.3333,62.5,0" fill="none" stroke="#33afe1" stroke-linecap="round" stroke-linejoin="round" stroke-dasharray="5,7"/></svg>

<svg width="329" height="97" viewBox="0 0 329 97" fill="none" xmlns="http://www.w3.org/2000/svg">
<path d="M158.852 57.904L198.999 41.249L165.269 40.0258L166.892 45.7417L158.686 52.4718L158.852 57.904Z" fill="#685ED6"/>
<path d="M199 41.2484L159.452 44.4765L128.202 60.6227L199 41.2484Z" fill="#18E1F7"/>
<path d="M165.27 40.0255L199 41.2487L165.815 28.0767L165.27 40.0255Z" fill="#18E1F7"/>
<path d="M137.5 35.5C115 29 106.9 11.1 68.5 3.49998C30.1 -4.10002 7.66667 8.66667 1 14.5" stroke="#18E1F7" stroke-linecap="round" stroke-linejoin="round" stroke-dasharray="5 7"/>
<path d="M202 63C211 74 235.5 90.8 265.5 94C295.5 97.2 319.667 95.3333 328 94" stroke="#33AFE1" stroke-linecap="round" stroke-linejoin="round" stroke-dasharray="5 7"/>
</svg>
